public/images/landing/logo_small.svg

<svg width="82" height="42" viewBox="0 0 82 42" fill="none" xmlns="http://www.w3.org/2000/svg">
<path d="M27.6668 40.9999L14.4724 14.4722L14.3335 40.9999H27.6668Z" fill="#38ADA9" stroke="white" stroke-width="1.6"/>
<path fill-rule="evenodd" clip-rule="evenodd" d="M14.3333 27.6666C16.9704 27.6666 19.5483 26.8847 21.7409 25.4196C23.9336 23.9545 25.6425 21.8721 26.6517 19.4358C27.6609 16.9994 27.9249 14.3185 27.4104 11.7321C26.896 9.14571 25.6261 6.76994 23.7614 4.90525C21.8967 3.04055 19.5209 1.77067 16.9345 1.2562C14.3481 0.741733 11.6672 1.00578 9.23088 2.01494C6.79453 3.02411 4.71215 4.73308 3.24707 6.92573C1.78199 9.11838 1 11.6962 1 14.3333V41H14.3333V27.6666Z" fill="#1F658A"/>
<path d="M14.3333 27.6666L14.3333 26.8666L13.5333 26.8666V27.6666H14.3333ZM21.7409 25.4196L22.1854 26.0847L22.1854 26.0847L21.7409 25.4196ZM26.6517 19.4358L27.3908 19.7419L27.3908 19.7419L26.6517 19.4358ZM27.4104 11.7321L28.1951 11.5761L28.1951 11.5761L27.4104 11.7321ZM16.9345 1.2562L17.0906 0.471574L17.0906 0.471574L16.9345 1.2562ZM9.23088 2.01494L9.53703 2.75405L9.53703 2.75405L9.23088 2.01494ZM3.24707 6.92573L2.58189 6.48127L2.58189 6.48127L3.24707 6.92573ZM1 41H0.2V41.8H1V41ZM14.3333 41V41.8H15.1333V41H14.3333ZM14.3333 28.4666C17.1286 28.4666 19.8612 27.6377 22.1854 26.0847L21.2965 24.7544C19.2354 26.1316 16.8122 26.8666 14.3333 26.8666L14.3333 28.4666ZM22.1854 26.0847C24.5096 24.5318 26.3211 22.3244 27.3908 19.7419L25.9126 19.1296C24.964 21.4198 23.3575 23.3772 21.2965 24.7544L22.1854 26.0847ZM27.3908 19.7419C28.4605 17.1594 28.7404 14.3176 28.1951 11.5761L26.6258 11.8882C27.1094 14.3194 26.8612 16.8395 25.9126 19.1296L27.3908 19.7419ZM28.1951 11.5761C27.6497 8.83446 26.3037 6.31614 24.3271 4.33956L23.1957 5.47093C24.9485 7.22375 26.1422 9.45697 26.6258 11.8882L28.1951 11.5761ZM24.3271 4.33956C22.3505 2.36298 19.8322 1.01691 17.0906 0.471574L16.7784 2.04083C19.2097 2.52443 21.4429 3.71811 23.1957 5.47093L24.3271 4.33956ZM17.0906 0.471574C14.349 -0.0737634 11.5073 0.206123 8.92473 1.27584L9.53703 2.75405C11.8272 1.80543 14.3472 1.55723 16.7784 2.04083L17.0906 0.471574ZM8.92473 1.27584C6.34221 2.34556 4.13488 4.15706 2.58189 6.48127L3.91225 7.37018C5.28942 5.30909 7.24686 3.70266 9.53703 2.75405L8.92473 1.27584ZM2.58189 6.48127C1.02891 8.80548 0.2 11.538 0.2 14.3333H1.8C1.8 11.8545 2.53507 9.43128 3.91225 7.37018L2.58189 6.48127ZM1.8 41V14.3333H0.2V41H1.8ZM14.3333 40.2H1V41.8H14.3333V40.2ZM13.5333 27.6666V41H15.1333V27.6666H13.5333Z" fill="white"/>
<path d="M44.0555 14.3334C46.6926 14.3334 49.2704 15.1153 51.4631 16.5804C53.6557 18.0455 55.3647 20.1279 56.3739 22.5642C57.383 25.0006 57.6471 27.6815 57.1326 30.2679C56.6181 32.8543 55.3483 35.2301 53.4836 37.0948C51.6189 38.9595 49.2431 40.2293 46.6567 40.7438C44.0703 41.2583 41.3894 40.9942 38.953 39.9851C36.5167 38.9759 34.4343 37.2669 32.9692 35.0743C31.5042 32.8816 30.7222 30.3038 30.7222 27.6667L44.0555 27.6667L44.0555 14.3334Z" fill="#1F658A" stroke="white" stroke-width="1.6"/>
<path d="M57.3888 14.3333C57.3888 11.6962 56.6068 9.11838 55.1417 6.92572C53.6767 4.73307 51.5943 3.02411 49.1579 2.01494C46.7216 1.00577 44.0407 0.741727 41.4543 1.2562C38.8679 1.77066 36.4921 3.04054 34.6274 4.90524C32.7627 6.76994 31.4928 9.14571 30.9784 11.7321C30.4639 14.3185 30.7279 16.9994 31.7371 19.4358C32.7463 21.8721 34.4552 23.9545 36.6479 25.4196C38.8405 26.8847 41.4184 27.6666 44.0555 27.6666L44.0555 14.3333H57.3888Z" fill="#38ADA9" stroke="white" stroke-width="1.6"/>
<circle cx="44.0556" cy="14.3334" r="1.66666" fill="white"/>
<circle cx="44.0556" cy="27.6667" r="1.66666" fill="white"/>
<path fill-rule="evenodd" clip-rule="evenodd" d="M15.1333 15.7958C15.6497 15.5126 15.9998 14.9639 15.9998 14.3334C15.9998 13.4129 15.2536 12.6667 14.3332 12.6667C13.4127 12.6667 12.6665 13.4129 12.6665 14.3334C12.6665 14.964 13.0168 15.5129 13.5333 15.796V27.6667H15.1333V15.7958Z" fill="white"/>
<path fill-rule="evenodd" clip-rule="evenodd" d="M73.6666 40.9834C72.1434 40.9071 70.6429 40.57 69.2309 39.9851C67.6132 39.3151 66.1434 38.3329 64.9052 37.0948C63.6671 35.8567 62.685 34.3869 62.0149 32.7692C61.3449 31.1515 61 29.4177 61 27.6667L74.3333 27.6667V27.6668H81V41.0001H73.6666V40.9834Z" fill="#38ADA9"/>
<path d="M73.6666 40.9834H74.4666V40.2224L73.7066 40.1844L73.6666 40.9834ZM69.2309 39.9851L68.9247 40.7242L69.2309 39.9851ZM64.9052 37.0948L64.3396 37.6605L64.3396 37.6605L64.9052 37.0948ZM62.0149 32.7692L61.2758 33.0753L62.0149 32.7692ZM61 27.6667L61 26.8667L60.2 26.8667V27.6667H61ZM74.3333 27.6667H75.1333V26.8667L74.3333 26.8667L74.3333 27.6667ZM74.3333 27.6668H73.5333V28.4668H74.3333V27.6668ZM81 27.6668H81.8V26.8668H81V27.6668ZM81 41.0001V41.8001H81.8V41.0001H81ZM73.6666 41.0001H72.8666V41.8001H73.6666V41.0001ZM73.7066 40.1844C72.2748 40.1127 70.8643 39.7958 69.537 39.246L68.9247 40.7242C70.4215 41.3442 72.0121 41.7016 73.6266 41.7824L73.7066 40.1844ZM69.537 39.246C68.0164 38.6162 66.6348 37.693 65.4709 36.5291L64.3396 37.6605C65.652 38.9729 67.21 40.014 68.9247 40.7242L69.537 39.246ZM65.4709 36.5291C64.3071 35.3653 63.3839 33.9837 62.754 32.463L61.2758 33.0753C61.9861 34.7901 63.0272 36.3481 64.3396 37.6605L65.4709 36.5291ZM62.754 32.463C62.1242 30.9424 61.8 29.3126 61.8 27.6667H60.2C60.2 29.5228 60.5656 31.3606 61.2758 33.0753L62.754 32.463ZM61 28.4667L74.3333 28.4667L74.3333 26.8667L61 26.8667L61 28.4667ZM73.5333 27.6667V27.6668H75.1333V27.6667H73.5333ZM74.3333 28.4668H81V26.8668H74.3333V28.4668ZM80.2 27.6668V41.0001H81.8V27.6668H80.2ZM81 40.2001H73.6666V41.8001H81V40.2001ZM74.4666 41.0001V40.9834H72.8666V41.0001H74.4666Z" fill="white"/>
<rect x="61" y="1" width="13.3333" height="26.6666" fill="#1F658A" stroke="white" stroke-width="1.6"/>
<circle cx="74.3332" cy="27.6667" r="1.66666" fill="white"/>
</svg>

<svg width="82" height="42" fill="none" xmlns="http://www.w3.org/2000/svg"><path d="M27.667 41L14.472 14.472 14.334 41h13.333z" fill="#38ADA9" stroke="#fff" stroke-width="1.6"/><path fill-rule="evenodd" clip-rule="evenodd" d="M14.333 27.667A13.333 13.333 0 101 14.333V41h13.333V27.667z" fill="#1F658A"/><path d="M14.333 27.667v-.8h-.8v.8h.8zm7.408-2.247l.444.665-.444-.665zm4.91-5.984l.74.306-.74-.306zm.76-7.704l.784-.156-.785.156zM16.933 1.256l.157-.784-.157.784zm-7.703.759l.306.739-.306-.74zm-5.984 4.91l-.665-.444.665.445zM1 41H.2v.8H1V41zm13.333 0v.8h.8V41h-.8zm0-12.533c2.796 0 5.528-.83 7.852-2.382l-.888-1.33a12.533 12.533 0 01-6.964 2.112v1.6zm7.852-2.382a14.133 14.133 0 005.206-6.343l-1.478-.612a12.534 12.534 0 01-4.616 5.624l.888 1.33zm5.206-6.343a14.134 14.134 0 00.804-8.166l-1.57.312a12.533 12.533 0 01-.712 7.242l1.478.612zm.804-8.166a14.134 14.134 0 00-3.868-7.236l-1.131 1.13a12.533 12.533 0 013.43 6.418l1.57-.312zM24.327 4.34A14.133 14.133 0 0017.091.472l-.313 1.569a12.533 12.533 0 016.418 3.43l1.131-1.131zM17.091.472a14.133 14.133 0 00-8.166.804l.612 1.478a12.533 12.533 0 017.241-.713l.313-1.57zm-8.166.804A14.133 14.133 0 002.582 6.48l1.33.89a12.533 12.533 0 015.625-4.617l-.612-1.478zM2.582 6.48A14.133 14.133 0 00.2 14.333h1.6c0-2.479.735-4.902 2.112-6.963l-1.33-.889zM1.8 41V14.333H.2V41h1.6zm12.533-.8H1v1.6h13.333v-1.6zm-.8-12.533V41h1.6V27.667h-1.6z" fill="#fff"/><path d="M44.056 14.333a13.333 13.333 0 11-13.334 13.334h13.334V14.333z" fill="#1F658A" stroke="#fff" stroke-width="1.6"/><path d="M57.389 14.333a13.333 13.333 0 10-13.334 13.334V14.333H57.39z" fill="#38ADA9" stroke="#fff" stroke-width="1.6"/><circle cx="44.056" cy="14.333" r="1.667" fill="#fff"/><circle cx="44.056" cy="27.667" r="1.667" fill="#fff"/><path fill-rule="evenodd" clip-rule="evenodd" d="M15.133 15.796a1.666 1.666 0 10-1.6 0v11.87h1.6v-11.87z" fill="#fff"/><path fill-rule="evenodd" clip-rule="evenodd" d="M73.667 40.983A13.334 13.334 0 0161 27.667h20V41h-7.333v-.017z" fill="#38ADA9"/><path d="M73.667 40.983h.8v-.76l-.76-.039-.04.8zm-4.436-.998l-.306.74.306-.74zm-4.326-2.89l-.565.566.565-.566zm-2.89-4.326l-.74.306.74-.306zM61 27.667v-.8h-.8v.8h.8zm13.333 0h.8v-.8h-.8v.8zm0 0h-.8v.8h.8v-.8zm6.667 0h.8v-.8H81v.8zM81 41v.8h.8V41H81zm-7.333 0h-.8v.8h.8V41zm.04-.816a12.534 12.534 0 01-4.17-.938l-.612 1.478c1.496.62 3.087.978 4.702 1.058l.08-1.598zm-4.17-.938a12.532 12.532 0 01-4.066-2.717L64.34 37.66a14.132 14.132 0 004.585 3.064l.612-1.478zm-4.066-2.717a12.533 12.533 0 01-2.717-4.066l-1.478.612a14.133 14.133 0 003.064 4.585l1.13-1.13zm-2.717-4.066c-.63-1.52-.954-3.15-.954-4.796h-1.6c0 1.856.366 3.694 1.076 5.408l1.478-.612zM61 28.467h13.333v-1.6H61v1.6zm12.533-.8h1.6-1.6zm.8.8H81v-1.6h-6.667v1.6zm5.867-.8V41h1.6V27.667h-1.6zM81 40.2h-7.333v1.6H81v-1.6zm-6.533.8v-.017h-1.6V41h1.6z" fill="#fff"/><path fill="#1F658A" stroke="#fff" stroke-width="1.6" d="M61 1h13.333v26.667H61z"/><circle cx="74.333" cy="27.667" r="1.667" fill="#fff"/></svg>
